X:2
T:10th Battalion H.L.I. Crossing the Rhine
S:unknown, photocopy
M:6/8
I:speed 250
K:D
d | dfA d2f | fga fed | c2e Ace | efg fed | 
dfA d2f | fga fed | c2e Ace | d3 d ||
||fg | a2f d2f | faf fed | c2e Ace | efg fed |
a2f d2f | faf fed | c2e Ace | d3 d ||
||z A | d3 Adf | faf fed | c3 Ace | efgfed |
d3 Adf faf fed | c2e Ace | d3 d ||
||fg | aAa Adf | faf fed | c2e Ace | efg fed |
aAa Adf | faf fed | c2e Ace | d3d2||
